X:36
T:Johney McGregger. Alex50.36
M:C
L:1/8
Z:vmp. Peter Dunk 2015
B:Alexander's 50 New Scotch & Irish Reels and H'pipes, ca1825
Q:1/4=140 " Fl: 8va"
K:D
Addc AddB|=cAGF ECCB|Addc Adde|=cAGE FD D2:|
Q:"loco"
defg (3fga fd|cdef (3efg ec|defg (3fga fd|(3efg fe fd d2|
defg (3fga fd|cdef (3efg ec|dABG FABc|dABG FD D2|]

